X:811
T:Tie the petticoat tighter
T:The bonnie highlander
T:The petticoats loose
T:Yourself along with me
R:Jig
O:Ireland
B:O'Neill's 792
B:Kerr's Second p30
S:O'Neill's 792
Z:Transcription:Stephen Foy, chords:Mike Long
M:6/8
L:1/8
K:C
B|\
"Am"c2A "Em"BGE|"Am"c2A "Em"BGE|"G"G2G G2d|G2G G2B|\
"Am"c2A "Em"BGE|"Am"c2A "Em"BGE|"Am"A2A A2e|A2A A2:|
B|\
"C"cde "G"dcB|"Am"cBA "Em"BGE|"G"g>ag gdB|g>ag gdB|\
"C"cde "G"dcB|"Am"cBA "Em"BGE|"Am"aba aec|aba aec||
"C"cde "G"dcB|"Am"cBA "Em"BGE|"G"g>ag gdB|g>ag gdB|\
"C"cde "G"def|"C"edc "E"BA^G|"Am"A2A A2e|A2A A2|]
